src/assets/icons/time,fancy,moon-night-time.svg

<svg width="48" height="48" viewBox="0 0 48 48" fill="none" xmlns="http://www.w3.org/2000/svg">
<g clip-path="url(#clip0_38:1489)">
<path opacity="0.6" d="M44 5L45.0804 7.91964L48 9L45.0804 10.0804L44 13L42.9196 10.0804L40 9L42.9196 7.91964L44 5Z" fill="black"/>
<path opacity="0.6" d="M42.1213 1.87913L41.1459 4.00045L42.1213 6.12177L40 5.14635L37.8787 6.12177L38.8541 4.00045L37.8787 1.87913L40 2.85456L42.1213 1.87913Z" fill="black"/>
<path opacity="0.6" d="M2.12132 38.1209L4.24264 39.0963L6.36396 38.1209L5.38854 40.2422L6.36396 42.3635L4.24264 41.3881L2.12132 42.3635L3.09674 40.2422L2.12132 38.1209Z" fill="black"/>
<path fill-rule="evenodd" clip-rule="evenodd" d="M24 45C35.598 45 45 35.598 45 24C45 12.402 35.598 3 24 3C12.402 3 3 12.402 3 24C3 35.598 12.402 45 24 45ZM21.7894 15.1579C21.7894 17.5996 19.81 19.5789 17.3683 19.5789C14.9267 19.5789 12.9473 17.5996 12.9473 15.1579C12.9473 12.7162 14.9267 10.7368 17.3683 10.7368C19.81 10.7368 21.7894 12.7162 21.7894 15.1579ZM33.9473 20.6842C33.9473 22.5155 32.4628 24 30.6315 24C28.8003 24 27.3157 22.5155 27.3157 20.6842C27.3157 18.8529 28.8003 17.3684 30.6315 17.3684C32.4628 17.3684 33.9473 18.8529 33.9473 20.6842ZM20.6842 37.2631C21.905 37.2631 22.8947 36.2735 22.8947 35.0526C22.8947 33.8318 21.905 32.8421 20.6842 32.8421C19.4634 32.8421 18.4737 33.8318 18.4737 35.0526C18.4737 36.2735 19.4634 37.2631 20.6842 37.2631Z" fill="black"/>
<g opacity="0.6">
<path d="M21.7894 15.1584C21.7894 17.6 19.81 19.5794 17.3683 19.5794C14.9266 19.5794 12.9473 17.6 12.9473 15.1584C12.9473 12.7167 14.9266 10.7373 17.3683 10.7373C19.81 10.7373 21.7894 12.7167 21.7894 15.1584Z" fill="black"/>
<path d="M33.9473 20.6847C33.9473 22.5159 32.4628 24.0005 30.6315 24.0005C28.8002 24.0005 27.3157 22.5159 27.3157 20.6847C27.3157 18.8534 28.8002 17.3689 30.6315 17.3689C32.4628 17.3689 33.9473 18.8534 33.9473 20.6847Z" fill="black"/>
<path d="M22.8947 35.0531C22.8947 36.2739 21.905 37.2636 20.6842 37.2636C19.4633 37.2636 18.4736 36.2739 18.4736 35.0531C18.4736 33.8322 19.4633 32.8426 20.6842 32.8426C21.905 32.8426 22.8947 33.8322 22.8947 35.0531Z" fill="black"/>
</g>
</g>
<defs>
<clipPath id="clip0_38:1489">
<rect width="48" height="48" fill="white"/>
</clipPath>
</defs>
</svg>

<svg xmlns="http://www.w3.org/2000/svg" width="48" height="48" fill="none" viewBox="0 0 48 48">
  <g clip-path="url(#clip0_38:1489)">
    <path fill="#000" d="M44 5l1.08 2.92L48 9l-2.92 1.08L44 13l-1.08-2.92L40 9l2.92-1.08L44 5zM42.121 1.88L41.146 4l.975 2.122L40 5.146l-2.121.976L38.854 4l-.975-2.12L40 2.854l2.121-.976zM2.121 38.12l2.122.976 2.121-.975-.975 2.121.975 2.122-2.121-.976-2.122.976.976-2.122-.976-2.121z" opacity=".6"/>
    <path fill="#000" fill-rule="evenodd" d="M24 45c11.598 0 21-9.402 21-21S35.598 3 24 3 3 12.402 3 24s9.402 21 21 21zm-2.21-29.842a4.421 4.421 0 11-8.843 0 4.421 4.421 0 018.842 0zm12.157 5.526a3.316 3.316 0 11-6.631 0 3.316 3.316 0 016.631 0zm-13.263 16.58a2.21 2.21 0 100-4.422 2.21 2.21 0 000 4.421z" clip-rule="evenodd"/>
    <g opacity=".6">
      <path fill="#000" d="M21.79 15.158a4.421 4.421 0 11-8.843 0 4.421 4.421 0 018.842 0zM33.947 20.685a3.316 3.316 0 11-6.631 0 3.316 3.316 0 016.631 0zM22.895 35.053a2.21 2.21 0 11-4.421 0 2.21 2.21 0 014.42 0z"/>
    </g>
  </g>
  <defs>
    <clipPath id="clip0_38:1489">
      <path fill="#fff" d="M0 0h48v48H0z"/>
    </clipPath>
  </defs>
</svg>
